assets/sonr-icons/check-shield.svg

<svg xmlns="http://www.w3.org/2000/svg" width="24" height="24" fill="none" viewBox="0 0 24 24"><path fill="#000" d="M12.367 4.06901C12.132 3.97601 11.87 3.97601 11.634 4.06901L5.63398 6.43101C5.25098 6.58201 4.99998 6.95101 4.99998 7.36201V11.002C4.99998 14.325 6.83098 17.377 9.76198 18.942L11.529 19.886C11.823 20.043 12.176 20.043 12.471 19.886L14.238 18.942C17.169 17.378 19 14.325 19 11.002V7.36201C19 6.95101 18.749 6.58201 18.366 6.43101L12.367 4.06901ZM10.901 2.20801C11.608 1.93001 12.393 1.93001 13.099 2.20801L19.099 4.57101C20.246 5.02301 21 6.12901 21 7.36201V11.002C21 15.063 18.763 18.794 15.18 20.706L13.413 21.65C12.53 22.121 11.471 22.121 10.588 21.65L8.82098 20.706C5.23798 18.794 3.00098 15.063 3.00098 11.002V7.36201C3.00098 6.13001 3.75498 5.02201 4.90198 4.57101L10.902 2.20801H10.901Z"/><path fill="#000" d="M15.707 9.29303C16.098 9.68403 16.098 10.317 15.707 10.707L11.707 14.707C11.316 15.098 10.683 15.098 10.292 14.707L8.29203 12.707C7.90103 12.316 7.90103 11.683 8.29203 11.292C8.68303 10.901 9.31603 10.901 9.70703 11.292L11 12.585L14.293 9.29203C14.684 8.90103 15.317 8.90103 15.707 9.29203V9.29303Z"/></svg>

<svg xmlns="http://www.w3.org/2000/svg" width="24" height="24" fill="none"><path fill="currentColor" d="M12.367 4.069a1 1 0 0 0-.733 0l-6 2.362A1 1 0 0 0 5 7.362v3.64a9 9 0 0 0 4.762 7.94l1.767.944a1 1 0 0 0 .942 0l1.767-.944A9 9 0 0 0 19 11.002v-3.64a1 1 0 0 0-.634-.931zm-1.466-1.861a3 3 0 0 1 2.198 0l6 2.363A3 3 0 0 1 21 7.362v3.64c0 4.061-2.237 7.792-5.82 9.704l-1.767.944a3 3 0 0 1-2.825 0l-1.767-.944a11 11 0 0 1-5.82-9.704v-3.64a3 3 0 0 1 1.901-2.791z"/><path fill="currentColor" d="M15.707 9.293a1 1 0 0 1 0 1.414l-4 4a1 1 0 0 1-1.415 0l-2-2a1 1 0 1 1 1.415-1.415L11 12.585l3.293-3.293a1 1 0 0 1 1.414 0z"/></svg>
